docs/docs/assets/opencode-wordmark-light.svg

<svg width='640' height='115' viewBox='0 0 640 115' fill='none' xmlns='http://www.w3.org/2000/svg'><g clip-path='url(#clip0_1401_86330)'><mask id='mask0_1401_86330' style='mask-type:luminance' maskUnits='userSpaceOnUse' x='0' y='0' width='640' height='115'><path d='M640 0H0V115H640V0Z' fill='white'/></mask><g mask='url(#mask0_1401_86330)'><path d='M49.2346 82.1433H16.4141V49.2861H49.2346V82.1433Z' fill='#CFCECD'/><path d='M49.2308 32.8573H16.4103V82.143H49.2308V32.8573ZM65.641 98.5716H0V16.4287H65.641V98.5716Z' fill='#656363'/><path d='M131.281 82.1433H98.4609V49.2861H131.281V82.1433Z' fill='#CFCECD'/><path d='M98.4649 82.143H131.285V32.8573H98.4649V82.143ZM147.696 98.5716H98.4649V115H82.0547V16.4287H147.696V98.5716Z' fill='#656363'/><path d='M229.746 65.7139V82.1424H180.516V65.7139H229.746Z' fill='#CFCECD'/><path d='M229.743 65.7144H180.512V82.143H229.743V98.5716H164.102V16.4287H229.743V65.7144ZM180.512 49.2859H213.332V32.8573H180.512V49.2859Z' fill='#656363'/><path d='M295.383 98.5718H262.562V49.2861H295.383V98.5718Z' fill='#CFCECD'/><path d='M295.387 32.8573H262.567V98.5716H246.156V16.4287H295.387V32.8573ZM311.797 98.5716H295.387V32.8573H311.797V98.5716Z' fill='#656363'/><path d='M393.848 82.1433H344.617V49.2861H393.848V82.1433Z' fill='#CFCECD'/><path d='M393.844 32.8573H344.613V82.143H393.844V98.5716H328.203V16.4287H393.844V32.8573Z' fill='#211E1E'/><path d='M459.485 82.1433H426.664V49.2861H459.485V82.1433Z' fill='#CFCECD'/><path d='M459.489 32.8573H426.668V82.143H459.489V32.8573ZM475.899 98.5716H410.258V16.4287H475.899V98.5716Z' fill='#211E1E'/><path d='M541.539 82.1433H508.719V49.2861H541.539V82.1433Z' fill='#CFCECD'/><path d='M541.535 32.8571H508.715V82.1428H541.535V32.8571ZM557.946 98.5714H492.305V16.4286H541.535V0H557.946V98.5714Z' fill='#211E1E'/><path d='M639.996 65.7139V82.1424H590.766V65.7139H639.996Z' fill='#CFCECD'/><path d='M590.77 32.8573V49.2859H623.59V32.8573H590.77ZM640 65.7144H590.77V82.143H640V98.5716H574.359V16.4287H640V65.7144Z' fill='#211E1E'/></g></g><defs><clipPath id='clip0_1401_86330'><rect width='640' height='115' fill='white'/></clipPath></defs></svg>

<svg xmlns="http://www.w3.org/2000/svg" width="640" height="115" fill="none" viewBox="0 0 640 115"><g clip-path="url(#a)"><mask id="b" width="640" height="115" x="0" y="0" maskUnits="userSpaceOnUse" style="mask-type:luminance"><path fill="#fff" d="M640 0H0v115h640z"/></mask><g mask="url(#b)"><path fill="#cfcecd" d="M49.235 82.143h-32.82V49.286h32.82z"/><path fill="#656363" d="M49.23 32.857H16.41v49.286h32.82zm16.411 65.715H0V16.429h65.641z"/><path fill="#cfcecd" d="M131.281 82.143h-32.82V49.286h32.82z"/><path fill="#656363" d="M98.465 82.143h32.82V32.857h-32.82zm49.231 16.429H98.465V115h-16.41V16.429h65.641z"/><path fill="#cfcecd" d="M229.746 65.714v16.428h-49.23V65.714z"/><path fill="#656363" d="M229.743 65.714h-49.231v16.429h49.231v16.429h-65.641V16.429h65.641zm-49.231-16.428h32.82V32.857h-32.82z"/><path fill="#cfcecd" d="M295.383 98.572h-32.821V49.286h32.821z"/><path fill="#656363" d="M295.387 32.857h-32.82v65.715h-16.411V16.429h49.231zm16.41 65.715h-16.41V32.857h16.41z"/><path fill="#cfcecd" d="M393.848 82.143h-49.231V49.286h49.231z"/><path fill="#211e1e" d="M393.844 32.857h-49.231v49.286h49.231v16.429h-65.641V16.429h65.641z"/><path fill="#cfcecd" d="M459.485 82.143h-32.821V49.286h32.821z"/><path fill="#211e1e" d="M459.489 32.857h-32.821v49.286h32.821zm16.41 65.715h-65.641V16.429h65.641z"/><path fill="#cfcecd" d="M541.539 82.143h-32.82V49.286h32.82z"/><path fill="#211e1e" d="M541.535 32.857h-32.82v49.286h32.82zm16.411 65.714h-65.641V16.43h49.23V0h16.411z"/><path fill="#cfcecd" d="M639.996 65.714v16.428h-49.23V65.714z"/><path fill="#211e1e" d="M590.77 32.857v16.429h32.82V32.857zM640 65.714h-49.23v16.429H640v16.429h-65.641V16.429H640z"/></g></g><defs><clipPath id="a"><path fill="#fff" d="M0 0h640v115H0z"/></clipPath></defs></svg>
